X: 33432
T: R Na G
R: reel
M: 4/4
K: Bminor
~B3d fBdf|agfe fedc|~B3d egfe|d2cA Bcdc|
B^ABd fBdf|agfe fedc|Bcdf egfe|1 dBcA Bcdc:|2 dBcA B2df||
|:ad d/d/d Adfa|g2fg e2fg|ad d/d/d Adfa|g2fg e2fg|
ad d/d/d Adfa|g2fg e2fg|ad d/d/d Adfa|1 g2fg e2fg:|2 g2fg e2B^A||

